picto/attention-train-left.svg

<svg class="color-immutable" width="24" height="24" viewBox="0 0 24 24" fill="none" xmlns="http://www.w3.org/2000/svg"><path d="M0 22.5V1.5C0 0.675 0.675 0 1.5 0H22.5C23.325 0 24 0.675 24 1.5V22.5C24 23.325 23.325 24 22.5 24H1.5C0.675 24 0 23.325 0 22.5Z" fill="#2D327D"/><path d="M2.24403 19.233L11.152 3.80401C11.334 3.50201 11.629 3.28601 11.998 3.28501C12.356 3.28401 12.667 3.51201 12.845 3.80601L21.752 19.235C21.923 19.543 21.962 19.907 21.779 20.227C21.601 20.537 21.248 20.693 20.905 20.7H3.09003C2.73803 20.693 2.40303 20.546 2.21803 20.227C2.03703 19.917 2.07903 19.534 2.24403 19.233Z" fill="white"/><path d="M11.998 4.739L20.52 19.5H3.47601L11.998 4.739ZM12.001 3.285C12 3.285 11.999 3.285 11.998 3.285C11.629 3.286 11.333 3.502 11.152 3.804L2.24401 19.233C2.07901 19.534 2.03701 19.917 2.21701 20.227C2.40201 20.546 2.73701 20.694 3.08901 20.7H20.904C21.248 20.692 21.6 20.537 21.778 20.227C21.962 19.907 21.922 19.543 21.751 19.235L12.845 3.806C12.668 3.512 12.358 3.285 12.001 3.285Z" fill="#EB0000"/><path d="M8.59401 14.483V15.585C8.59401 15.649 8.54201 15.701 8.47801 15.701C8.41401 15.701 8.36201 15.649 8.36201 15.585V14.645H8.26101V17.158C8.26101 17.25 8.18601 17.324 8.09501 17.324C8.00301 17.324 7.92901 17.249 7.92901 17.158V15.696H7.82201V17.158C7.82201 17.25 7.74701 17.324 7.65501 17.324C7.56301 17.324 7.48901 17.249 7.48901 17.158V14.645H7.38801V15.585C7.38801 15.649 7.33601 15.701 7.27201 15.701C7.20801 15.701 7.15601 15.649 7.15601 15.585V14.483C7.15601 14.304 7.30101 14.158 7.48101 14.158H8.26901C8.44801 14.158 8.59401 14.304 8.59401 14.483Z" fill="black"/><path d="M7.55701 13.75C7.55701 13.571 7.70301 13.425 7.88201 13.425C8.06101 13.425 8.20701 13.571 8.20701 13.75C8.20701 13.929 8.06101 14.075 7.88201 14.075C7.70301 14.075 7.55701 13.929 7.55701 13.75Z" fill="black"/><path d="M9 17.625H10.875H11.25V18V19.125H10.875V18H9V17.625Z" fill="#EB0000"/><path d="M5.625 18L9 18L9 17.625L5.625 17.625L5.625 18Z" fill="black"/><path d="M11.25 12V12.159L11.091 12H11.25Z" fill="#EB0000"/><path d="M10.75 12L11.25 12.5V12.659L10.591 12H10.75Z" fill="#EB0000"/><path d="M10.25 12L11.25 13V13.159L10.091 12H10.25Z" fill="#EB0000"/><path d="M9.25 12L11.25 14V14.159L9.091 12H9.25Z" fill="#EB0000"/><path d="M9 12.25L11.25 14.5V14.659L9 12.409V12.25Z" fill="#EB0000"/><path d="M9 12.75L11.25 15V15.159L9 12.909V12.75Z" fill="#EB0000"/><path d="M9 13.25L11.25 15.5V15.659L9 13.409V13.25Z" fill="#EB0000"/><path d="M9 13.75L11.25 16V16.159L9 13.909V13.75Z" fill="#EB0000"/><path d="M9 14.25L11.25 16.5V16.659L9 14.409V14.25Z" fill="#EB0000"/><path d="M9 14.75L11.25 17V17.159L9 14.909V14.75Z" fill="#EB0000"/><path d="M9 15.25L11 17.25H10.841L9 15.409V15.25Z" fill="#EB0000"/><path d="M9 15.75L10.5 17.25H10.341L9 15.909V15.75Z" fill="#EB0000"/><path d="M9 16.25L10 17.25H9.841L9 16.409V16.25Z" fill="#EB0000"/><path d="M9 16.75L9.5 17.25H9.341L9 16.909V16.75Z" fill="#EB0000"/><path d="M9.75 12L11.25 13.5V13.659L9.591 12H9.75Z" fill="#EB0000"/><path d="M12.375 19.125L12.75 19.125L12.75 18.525L12.375 18.525L12.375 19.125Z" fill="black"/><path d="M15 19.125L15.375 19.125L15.375 18.525L15 18.525L15 19.125Z" fill="black"/><path d="M11.625 12.9V17.475C11.625 17.557 11.655 17.685 11.692 17.759L11.933 18.241C11.97 18.315 12.068 18.375 12.15 18.375H15.6C15.682 18.375 15.78 18.315 15.817 18.241L16.058 17.759C16.095 17.685 16.125 17.557 16.125 17.475V12.9C16.125 12.817 16.077 12.702 16.019 12.644L15.481 12.106C15.423 12.048 15.307 12 15.225 12H12.525C12.443 12 12.327 12.048 12.269 12.106L11.731 12.644C11.673 12.702 11.625 12.817 11.625 12.9ZM14.25 12.75H13.5V12.45H14.25V12.75ZM15 16.2H15.75V16.5H15V16.2ZM12 16.2H12.75V16.5H12V16.2ZM12 13.125H15.75V15H12V13.125Z" fill="black"/><path d="M12.881 10.875H14.868C14.94 10.875 14.999 10.934 14.999 11.006C14.999 11.078 14.94 11.137 14.868 11.137H14.006V11.85H13.743V11.137H12.881C12.809 11.137 12.75 11.078 12.75 11.006C12.75 10.934 12.809 10.875 12.881 10.875Z" fill="black"/></svg>

<svg class="color-immutable" width="24" height="24" viewBox="0 0 24 24" fill="none" xmlns="http://www.w3.org/2000/svg"><g clip-path="url(#a)"><path d="M0 22.5v-21C0 .675.675 0 1.5 0h21c.825 0 1.5.675 1.5 1.5v21c0 .825-.675 1.5-1.5 1.5h-21C.675 24 0 23.325 0 22.5Z" fill="#2D327D"/><path d="m2.244 19.233 8.908-15.429c.182-.302.477-.518.846-.519.358-.001.669.227.847.521l8.907 15.429c.171.308.21.672.027.992-.178.31-.531.466-.874.473H3.09c-.352-.007-.687-.154-.872-.473-.181-.31-.139-.693.026-.994Z" fill="#fff"/><path d="M11.998 4.739 20.52 19.5H3.476l8.522-14.761Zm.003-1.454h-.003c-.369.001-.665.217-.846.519L2.244 19.233c-.165.301-.207.684-.027.994.185.319.52.467.872.473h17.815c.344-.008.696-.163.874-.473.184-.32.144-.684-.027-.992L12.845 3.806c-.177-.294-.487-.521-.844-.521Z" fill="#EB0000"/><path d="M8.594 14.483v1.102a.116.116 0 0 1-.232 0v-.94h-.101v2.513a.166.166 0 0 1-.332 0v-1.462h-.107v1.462a.166.166 0 0 1-.333 0v-2.513h-.101v.94a.116.116 0 0 1-.232 0v-1.102c0-.179.145-.325.325-.325h.788c.179 0 .325.146.325.325ZM7.557 13.75a.326.326 0 0 1 .65 0 .326.326 0 0 1-.65 0Z" fill="#000"/><path d="M9 17.625h2.25v1.5h-.375V18H9v-.375Z" fill="#EB0000"/><path d="M5.625 18H9v-.375H5.625V18Z" fill="#000"/><path d="M11.25 12v.159L11.091 12h.159ZM10.75 12l.5.5v.159L10.591 12h.159ZM10.25 12l1 1v.159L10.091 12h.159ZM9.25 12l2 2v.159L9.091 12h.159ZM9 12.25l2.25 2.25v.159L9 12.409v-.159ZM9 12.75 11.25 15v.159L9 12.909v-.159ZM9 13.25l2.25 2.25v.159L9 13.409v-.159ZM9 13.75 11.25 16v.159L9 13.909v-.159ZM9 14.25l2.25 2.25v.159L9 14.409v-.159ZM9 14.75 11.25 17v.159L9 14.909v-.159ZM9 15.25l2 2h-.159L9 15.409v-.159ZM9 15.75l1.5 1.5h-.159L9 15.909v-.159ZM9 16.25l1 1h-.159L9 16.409v-.159ZM9 16.75l.5.5h-.159L9 16.909v-.159ZM9.75 12l1.5 1.5v.159L9.591 12h.159Z" fill="#EB0000"/><path d="M12.375 19.125h.375v-.6h-.375v.6ZM15 19.125h.375v-.6H15v.6ZM11.625 12.9v4.575c0 .082.03.21.067.284l.241.482a.267.267 0 0 0 .217.134h3.45c.082 0 .18-.06.217-.134l.241-.482a.757.757 0 0 0 .067-.284V12.9a.417.417 0 0 0-.106-.256l-.538-.538a.42.42 0 0 0-.256-.106h-2.7a.42.42 0 0 0-.256.106l-.538.538a.417.417 0 0 0-.106.256Zm2.625-.15h-.75v-.3h.75v.3ZM15 16.2h.75v.3H15v-.3Zm-3 0h.75v.3H12v-.3Zm0-3.075h3.75V15H12v-1.875ZM12.881 10.875h1.987c.072 0 .131.059.131.131a.131.131 0 0 1-.131.131h-.862v.713h-.263v-.713h-.862a.131.131 0 0 1-.131-.131c0-.072.059-.131.131-.131Z" fill="#000"/></g><defs><clipPath id="a"><path fill="#fff" d="M0 0h24v24H0z"/></clipPath></defs></svg>
